X:1
T:Day Is Dying in the West
T:William Fiske Sherwin
T:Day Is Dying in the West
T:Public Domain
T:Public Domain
C:William Fiske Sherwin
Z:Public Domain
%%score ( 1 2 ) ( 3 4 )
L:1/8
M:6/4
K:G
V:1 treble 
V:2 treble 
V:3 bass 
V:4 bass 
V:1
 [B,G]4 [B,G]2 [CG]4 [CE]2 | [B,D]4 [^A,^C]2 [B,D]6 | [B,G]4 [B,G]2 [CG]4 [CE]2 | %3
w: 1.~Day is dy- ing|in the west;|Heav’n is touch- ing|
w: 2.~Lord of life, be-|neath the dome|Of the un- i-|
w: 3.~While the deep- ening|sha- dows fall,|Heart of love en-|
w: 4.~When for- ev- er|from our sight|Pass the stars, the|
 [B,D]4 [^A,^C]2 [B,D]6 | [CF]4 [CF]2 [B,G]4 [B,G]2 | ([CA]2 [B,G]2) [DA]2 [DB]6 | %6
w: earth with rest;|Wait and wor- ship|while * the night|
w: verse, Thy home,|Ga- ther us who|seek * Thy face|
w: fold- ing all,|Through the glo- ry|and * the grace|
w: day, the night,|Lord of an- gels,|on * our eyes|
 [Dc]4 [Dc]2 [DB]4 [DB]2 | (^c2 B2) [Gc]2 [Dd]4 [DB]2 | [DA]6 [^CA]6 | D12 || %10
w: Sets the even- ing|lamps * a- light Through|the sky.||
w: To the fold of|Thy * em- brace, For|art nigh.||
w: Of the stars that|veil * Thy face, Our|a- scend.||
w: Let e- ter- nal|morn- * ing rise And|dows end.||
"^Refrain" [B,G]4 [B,D]2 [B,G]4 [B,D]2 | [DB]6 [B,G]6 | [Gd]6 [Fc]4 [FA]2 | G12 | %14
w: ||||
w: ||||
w: ||||
w: ||||
 [EG]4 [^DF]2 [EG]4 [CE]2 | [B,D]4 [DG]2 [DB]6 | [DA]4 [D^G]2 [DA]4 [DF]2 | %17
w: |||
w: |||
w: |||
w: |||
 [DG]4 [DB]2 [Gd]4 [Ge]2 | [Gd]6 [DF]6 | [DG]12 |] %20
w: |||
w: |||
w: |||
w: |||
V:2
 x12 | x12 | x12 | x12 | x12 | x12 | x12 | G4 x8 | x12 | D12 || x12 | x12 | x12 | G12 | x12 | x12 | %16
w: |||||||all|||||||||
w: |||||||Thou|||||||||
w: |||||||hearts|||||||||
w: |||||||sha-|||||||||
 x12 | x12 | x12 | x12 |] %20
w: ||||
w: ||||
w: ||||
w: ||||
V:3
 [G,,D,]4 [G,,D,]2 [G,,E,]4 [G,,G,]2 | [G,,G,]4 [G,,E,]2 [G,,D,]6 | %2
w: ~ ~ ~ ~|~ ~ ~|
 [G,,D,]4 [G,,D,]2 [G,,E,]4 [G,,G,]2 | [G,,G,]4 [G,,E,]2 (D,4 G,2) | %4
w: ~ ~ ~ ~|~ ~ ~ *|
 [D,A,]4 [D,A,]2 [D,G,]4 [D,G,]2 | (F,2 G,2) [D,F,]2 G,6 | [F,A,]4 [F,A,]2 G,4 G,2 | %7
w: ~ ~ ~ ~|~ * ~ ~|~ ~ ~ ~|
 [E,A,]4 [A,,A,]2 [D,F,]4 [G,,G,]2 | [A,,F,]6 [A,,G,]6 | [D,F,]12 || %10
w: ~ ~ Ho- ly,|ho- ly,|ho-|
 [G,,G,]4 [G,,G,]2 [G,,D,]4 [G,,G,]2 | G,6 G,6 | [D,B,]6 [D,A,]4 [D,C]2 | [G,B,]12 | %14
w: ly, Lord God of|Hosts! Heav’n|are full of|Thee!|
 [C,G,]4 [C,A,]2 [C,G,]4 [C,G,]2 | [G,,G,]4 [G,B,]2 G,6 | [D,C]4 [D,B,]2 [D,C]4 [D,A,]2 | %17
w: Heav’n and earth are|prais- ing Thee,|Lord most high! *|
 [G,B,]4 G,2 [G,B,]4 [C,C]2 | [D,B,]6 (A,4 C2) | [G,,B,]12 |] %20
w: |||
V:4
 x12 | x12 | x12 | x6 G,,6 | x12 | D,4 G,6 x2 | x6 G,4 G,2 | x12 | x12 | x12 || x12 | G,6 G,6 | %12
w: |||~||~ ~|~ ~|||||and earth|
 x12 | x12 | x12 | x6 G,6 | x12 | x4 G,2 x6 | x6 D,6 | x12 |] %20
w: |||O|||||

